packages/icons/src/gitlab-viewbox.svg

<svg viewBox="0 0 24 24" fill="none" xmlns="http://www.w3.org/2000/svg">
<path fill-rule="evenodd" clip-rule="evenodd" d="M21.9628 13.4365L20.8437 9.69716L18.6258 2.28598C18.5117 1.90471 18.0148 1.90471 17.9007 2.28598L15.6827 9.69716H8.31776L6.09975 2.28598C5.98568 1.90471 5.4888 1.90471 5.37465 2.28598L3.15677 9.69716L2.03773 13.4365C1.98797 13.6028 1.98796 13.7819 2.03771 13.9481C2.08746 14.1144 2.18442 14.2593 2.31468 14.362L12.0002 22.0022L21.6858 14.362C21.8161 14.2593 21.913 14.1144 21.9628 13.9481C22.0125 13.7819 22.0125 13.6028 21.9628 13.4365Z" fill="#FC6D26"/>
<path fill-rule="evenodd" clip-rule="evenodd" d="M12 22.0022L15.6825 9.6972H8.31744L11.9999 22.0022H12Z" fill="#E24329"/>
<path fill-rule="evenodd" clip-rule="evenodd" d="M12.0001 22.0022L8.31756 9.69724H3.15665L12.0001 22.0022Z" fill="#FC6D26"/>
<path fill-rule="evenodd" clip-rule="evenodd" d="M3.15647 9.69624L2.03732 13.4356C1.98757 13.6019 1.98758 13.781 2.03734 13.9472C2.08711 14.1134 2.18408 14.2583 2.31435 14.361L11.9999 22.0012L3.15647 9.69624Z" fill="#FCA326"/>
<path fill-rule="evenodd" clip-rule="evenodd" d="M3.15651 9.6973H8.31742L6.09941 2.28608C5.9853 1.90476 5.48842 1.90476 5.37436 2.28608L3.15647 9.6973H3.15651Z" fill="#E24329"/>
<path fill-rule="evenodd" clip-rule="evenodd" d="M11.9999 22.0022L15.6824 9.69724H20.8433L11.9999 22.0022Z" fill="#FC6D26"/>
<path fill-rule="evenodd" clip-rule="evenodd" d="M20.8432 9.69724L21.9623 13.4366C22.0121 13.6029 22.0121 13.7819 21.9623 13.9482C21.9125 14.1144 21.8156 14.2593 21.6853 14.362L11.9998 22.0022L20.8432 9.69724Z" fill="#FCA326"/>
<path fill-rule="evenodd" clip-rule="evenodd" d="M20.8433 9.6973H15.6823L17.9003 2.28608C18.0144 1.90476 18.5113 1.90476 18.6254 2.28608L20.8433 9.6973Z" fill="#E24329"/>
</svg>

<svg xmlns="http://www.w3.org/2000/svg" fill="none" viewBox="0 0 24 24"><path fill="#FC6D26" fill-rule="evenodd" d="m21.963 13.437-1.12-3.74-2.217-7.411a.373.373 0 0 0-.725 0l-2.218 7.411H8.318L6.1 2.286a.373.373 0 0 0-.725 0L3.157 9.697l-1.12 3.74a.895.895 0 0 0 0 .511c.05.166.147.311.278.414L12 22.002l9.686-7.64a.827.827 0 0 0 .277-.414.896.896 0 0 0 0-.511Z" clip-rule="evenodd"/><path fill="#E24329" fill-rule="evenodd" d="m12 22.002 3.682-12.305H8.317L12 22.002Z" clip-rule="evenodd"/><path fill="#FC6D26" fill-rule="evenodd" d="M12 22.002 8.318 9.697H3.157L12 22.002Z" clip-rule="evenodd"/><path fill="#FCA326" fill-rule="evenodd" d="m3.156 9.696-1.119 3.74a.895.895 0 0 0 0 .511c.05.166.147.311.277.414L12 22.001 3.156 9.696Z" clip-rule="evenodd"/><path fill="#E24329" fill-rule="evenodd" d="M3.157 9.697h5.16L6.1 2.287a.373.373 0 0 0-.725 0l-2.218 7.41Z" clip-rule="evenodd"/><path fill="#FC6D26" fill-rule="evenodd" d="m12 22.002 3.682-12.305h5.161L12 22.002Z" clip-rule="evenodd"/><path fill="#FCA326" fill-rule="evenodd" d="m20.843 9.697 1.12 3.74c.05.166.05.345 0 .511a.828.828 0 0 1-.278.414L12 22.002l8.843-12.305Z" clip-rule="evenodd"/><path fill="#E24329" fill-rule="evenodd" d="M20.843 9.697h-5.16l2.217-7.41a.373.373 0 0 1 .725 0l2.218 7.41Z" clip-rule="evenodd"/></svg>
